src/assets/icons/letters,simple,sans-c.svg

<svg width="48" height="48" viewBox="0 0 48 48" fill="none" xmlns="http://www.w3.org/2000/svg">
<rect opacity="0.2" x="5" y="5" width="38" height="38" rx="4" fill="black"/>
<path d="M34.1966 21.3477C33.5692 16.1406 29.6281 13.1463 24.4101 13.1463C18.4545 13.1463 13.9079 17.3516 13.9079 24.7273C13.9079 32.081 18.3774 36.3082 24.4101 36.3082C30.1895 36.3082 33.6792 32.4663 34.1966 28.3161L29.3749 28.294C28.9236 30.7049 27.0301 32.092 24.4871 32.092C21.0635 32.092 18.7407 29.549 18.7407 24.7273C18.7407 20.0376 21.0305 17.3626 24.5202 17.3626C27.1292 17.3626 29.0116 18.8707 29.3749 21.3477H34.1966Z" fill="black"/>
</svg>

<svg xmlns="http://www.w3.org/2000/svg" width="48" height="48" fill="none" viewBox="0 0 48 48">
  <rect width="38" height="38" x="5" y="5" fill="#000" opacity=".2" rx="4"/>
  <path fill="#000" d="M34.197 21.348c-.628-5.207-4.569-8.202-9.787-8.202-5.956 0-10.502 4.206-10.502 11.581 0 7.354 4.47 11.581 10.502 11.581 5.78 0 9.27-3.842 9.787-7.992l-4.822-.022c-.451 2.41-2.345 3.798-4.888 3.798-3.423 0-5.746-2.543-5.746-7.365 0-4.69 2.29-7.364 5.78-7.364 2.608 0 4.49 1.508 4.854 3.985h4.822z"/>
</svg>
